remix/Editor/underline.svg

<svg viewBox="0 0 24 24" fill="currentColor" xmlns="http://www.w3.org/2000/svg"><path d="M8 3V12C8 14.2091 9.79086 16 12 16C14.2091 16 16 14.2091 16 12V3H18V12C18 15.3137 15.3137 18 12 18C8.68629 18 6 15.3137 6 12V3H8ZM4 20H20V22H4V20Z"/></svg>

<svg viewBox="0 0 24 24" xmlns="http://www.w3.org/2000/svg"><path fill="none" d="M0 0h24v24H0Z"/><path d="M8 3v9 0c0 2.2 1.79 4 4 4 2.2 0 4-1.8 4-4V3h2v9 0c0 3.31-2.69 6-6 6 -3.32 0-6-2.69-6-6V3h2ZM4 20h16v2H4v-2Z"/></svg>
